X:593
T:Ben Green's
S:Bruce & Emmett's Drummers and Fifers Guide (1862), p. 59
M:2/4
L:1/16
Q:1/4=90
K:D
%%MIDI program 72
%%MIDI transpose 8
%%MIDI ratio 3 1
A2|dfeg fagb|afge fdec|defd gfed|e2A2A2 (3(ABc)|dfeg fagb|
afge fdec|Bcdg fdec|d2f2d2::fg|afge fdec|dcBA BAGF|
gefd ecdB|cdec A2Bc|dfed egfe|fagf gbag|fbag fdec|d2f2d2:|

